X: 9
T: The Gown and Apron
S: smallpipes set from Stephen Thomforde
R: jig
Z: 2020 John Chambers <jc:trillian.mit.edu>
M: 6/8
L: 1/8
K: Amix
|:\
"A"c2e ece | ece ge2 | "D"fdd add | f3 fed |\
"A"c2e ece | ece ge2 | "D"fdd fgf |1 "Em"e2d cAA :|2 "Em"eed cde ||
|:\
"A"a3 c2a | ccc g2e | "A"a3 "D"d2a | "Em"e2d cAA |\
"A"a3 c2a | ccc g2e | "D"fdd fgf |1 "Em"e2d cde :|2 "Em"e2d "Am"cAA |]

%%sep 1 1 500

